X: 586
T: Xiaoniao chuang
L: 1/8
M: 2/4
K: F
dd2c [I:setbarnb 1]| 
f dc2 | 
c f d c | 
cA2G | 
A2z2 | 
dd2c | 
f dc2 | 
c f d c | 
cA2G | 
A2z2 | 
A GF2 | 
c> d c A | 
cA2G | 
A2z2 | 
c2A3/ G/ | 
F A G F | 
ED2C | 
D2z2 |]

@@@ Tune index: 9460
